www/assets/icons/wheelchair_pickup.svg

<svg width="24" height="24" viewBox="0 0 24 24" xmlns="http://www.w3.org/2000/svg" fill='currentColor'><path d="M3.70502 4C3.70502 2.89 4.59502 2 5.70502 2C6.81502 2 7.70502 2.89 7.70502 4C7.70502 5.11 6.81502 6 5.70502 6C4.59502 6 3.70502 5.11 3.70502 4ZM9.20502 10.95V9C9.20502 7.9 8.30502 7 7.20502 7H4.20502C3.10502 7 2.20502 7.9 2.20502 9V15H4.20502V22H7.70502V21.89C6.46502 20.63 5.70502 18.9 5.70502 17C5.70502 14.42 7.11502 12.16 9.20502 10.95ZM15.705 17C15.705 18.65 14.355 20 12.705 20C11.055 20 9.70502 18.65 9.70502 17C9.70502 15.89 10.315 14.94 11.205 14.42V12.26C9.18502 12.9 7.70502 14.77 7.70502 17C7.70502 19.76 9.94502 22 12.705 22C15.465 22 17.705 19.76 17.705 17H15.705ZM18.745 14H14.205V8H12.205V16H17.665L20.135 19.71L21.795 18.6L18.745 14Z"/></svg>

<svg xmlns="http://www.w3.org/2000/svg" width="24" height="24" viewBox="0 0 24 24" fill='currentColor'><path d="M3.705 4c0-1.11.89-2 2-2s2 .89 2 2-.89 2-2 2-2-.89-2-2m5.5 6.95V9c0-1.1-.9-2-2-2h-3c-1.1 0-2 .9-2 2v6h2v7h3.5v-.11c-1.24-1.26-2-2.99-2-4.89 0-2.58 1.41-4.84 3.5-6.05m6.5 6.05c0 1.65-1.35 3-3 3s-3-1.35-3-3c0-1.11.61-2.06 1.5-2.58v-2.16c-2.02.64-3.5 2.51-3.5 4.74 0 2.76 2.24 5 5 5s5-2.24 5-5zm3.04-3h-4.54V8h-2v8h5.46l2.47 3.71 1.66-1.11z"/></svg>
